assets/icons/traton/document_xls.svg

<svg xmlns="http://www.w3.org/2000/svg" width="32" height="32" viewBox="0 0 32 32" fill="none">
<path d="M23.389 22.1649C23.8732 22.165 24.3472 22.223 24.8098 22.3384C25.2722 22.4538 25.6775 22.6193 26.0244 22.8355L25.4821 24.167C24.7807 23.7704 24.0786 23.5715 23.3773 23.5715C22.8859 23.5715 22.5205 23.6517 22.2819 23.8103C22.0506 23.969 21.935 24.1784 21.935 24.438C21.9352 24.6975 22.0692 24.8921 22.3366 25.0219C22.6114 25.1444 23.0272 25.2678 23.5835 25.3904C24.1619 25.5274 24.6365 25.6637 25.0052 25.8007C25.3739 25.9378 25.6889 26.1552 25.9491 26.4509C26.2164 26.7466 26.3498 27.1471 26.3498 27.6518C26.3498 28.0845 26.2271 28.4814 25.9814 28.842C25.7428 29.1953 25.381 29.4769 24.8968 29.6861C24.4123 29.8953 23.8222 30 23.1281 30C22.5281 30 21.9458 29.9207 21.3819 29.7622C20.8253 29.5963 20.3763 29.3833 20.0364 29.1237L20.6334 27.8029C20.9587 28.0408 21.3453 28.2328 21.7933 28.377C22.2415 28.5212 22.6906 28.5934 23.1389 28.5934C23.6377 28.5934 24.0074 28.5213 24.246 28.377C24.4843 28.2256 24.6036 28.0266 24.6036 27.7814C24.6036 27.6013 24.531 27.4533 24.3867 27.3379C24.2494 27.2154 24.0683 27.1176 23.8444 27.0455C23.6275 26.9734 23.33 26.8942 22.9542 26.8077C22.376 26.6707 21.9021 26.5333 21.5334 26.3963C21.1647 26.2593 20.8463 26.0392 20.5787 25.7364C20.3183 25.4334 20.1879 25.0288 20.1879 24.5238C20.1879 24.0838 20.3079 23.6871 20.5465 23.3336C20.7851 22.9731 21.1432 22.6879 21.6204 22.4787C22.1048 22.2697 22.695 22.1649 23.389 22.1649ZM9.53494 24.7509L11.2489 22.2945H13.1475L10.5004 25.9528L13.3312 29.8704H11.3026L9.46947 27.2405L7.66858 29.8704H5.64978L8.46105 26.0171L5.79147 22.2945H7.78779L9.53494 24.7509ZM15.8317 28.4414H19.6397V29.8704H14.0738V22.2945H15.8317V28.4414ZM26.0058 11.5683V19.9736H24.0046V12.9797H14.9992V3.99631H7.99495V19.9668H5.99374V2H16.4141L26.0058 11.5683ZM17.0004 10.9834H22.5897L17.0004 5.40776V10.9834Z" fill="#001D21" />
</svg>

<svg xmlns="http://www.w3.org/2000/svg" fill="none" viewBox="0 0 32 32"><path fill="#001d21" d="m23.4 22.2 1.4.1 1.2.5-.5 1.4q-1-.6-2.1-.6l-1.1.2q-.4.3-.4.6 0 .4.4.6l1.3.4 1.4.4q.6.2 1 .7.3.3.3 1.2 0 .6-.3 1.1-.4.6-1.1.9t-1.8.3-1.7-.2L20 29l.6-1.3 1.2.6 1.3.2q.8 0 1.1-.2t.4-.6-.2-.5l-.6-.3-.8-.2-1.5-.4-1-.7q-.3-.4-.3-1.2l.3-1.2q.4-.5 1.1-.8t1.8-.3M9.5 24.8l1.7-2.5h2L10.4 26l2.8 3.9h-2l-1.8-2.7L7.7 30h-2L8.4 26l-2.7-3.7h2zm6.3 3.6h3.8V30h-5.5v-7.6h1.7zM26 11.6V20h-2v-7h-9V4H8v16H6V2h10.4zm-9-.6h5.6L17 5.4z"/></svg>
